flaticon/programming-line/css-code.svg

<svg xmlns="http://www.w3.org/2000/svg" width="32" height="32" viewBox="0 0 24 24">
    <path d="M1.855469 4.835938C1.949219 4.835938 2.039062 4.800781 2.105469 4.734375 2.167969 4.667969 2.207031 4.578125 2.207031 4.484375 2.207031 4.394531 2.167969 4.300781 2.105469 4.238281 2.039062 4.171875 1.949219 4.132812 1.855469 4.132812 1.761719 4.132812 1.671875 4.171875 1.605469 4.238281 1.539062 4.300781 1.503906 4.394531 1.503906 4.484375 1.503906 4.578125 1.539062 4.667969 1.605469 4.734375 1.671875 4.800781 1.761719 4.835938 1.855469 4.835938zM2.980469 4.835938C3.074219 4.835938 3.167969 4.800781 3.230469 4.734375 3.296875 4.667969 3.335938 4.578125 3.335938 4.484375 3.335938 4.394531 3.296875 4.300781 3.230469 4.238281 3.167969 4.171875 3.074219 4.132812 2.980469 4.132812 2.890625 4.132812 2.796875 4.171875 2.734375 4.238281 2.667969 4.300781 2.628906 4.394531 2.628906 4.484375 2.628906 4.578125 2.667969 4.667969 2.734375 4.734375 2.796875 4.800781 2.890625 4.835938 2.980469 4.835938zM4.109375 4.835938C4.203125 4.835938 4.292969 4.800781 4.359375 4.734375 4.425781 4.667969 4.460938 4.578125 4.460938 4.484375 4.460938 4.394531 4.425781 4.300781 4.359375 4.238281 4.292969 4.171875 4.203125 4.132812 4.109375 4.132812 4.015625 4.132812 3.925781 4.171875 3.859375 4.238281 3.792969 4.300781 3.757812 4.394531 3.757812 4.484375 3.757812 4.578125 3.792969 4.667969 3.859375 4.734375 3.925781 4.800781 4.015625 4.835938 4.109375 4.835938zM17.636719 13.152344C17.207031 13.152344 16.859375 12.804688 16.859375 12.375L16.859375 11.25C16.859375 10.433594 16.199219 9.769531 15.382812 9.769531L15.007812 9.769531C14.8125 9.769531 14.652344 9.925781 14.652344 10.121094 14.652344 10.316406 14.8125 10.472656 15.007812 10.472656L15.382812 10.472656C15.808594 10.472656 16.15625 10.820312 16.15625 11.25L16.15625 12.375C16.15625 12.828125 16.359375 13.230469 16.679688 13.503906 16.359375 13.773438 16.15625 14.179688 16.15625 14.628906L16.15625 15.757812C16.15625 16.183594 15.808594 16.53125 15.382812 16.53125L15.007812 16.53125C14.8125 16.53125 14.652344 16.691406 14.652344 16.882812 14.652344 17.078125 14.8125 17.238281 15.007812 17.238281L15.382812 17.238281C16.199219 17.238281 16.859375 16.574219 16.859375 15.757812L16.859375 14.628906C16.859375 14.203125 17.207031 13.855469 17.636719 13.855469 17.832031 13.855469 17.988281 13.699219 17.988281 13.503906 17.988281 13.308594 17.832031 13.152344 17.636719 13.152344zM7.84375 12.375L7.84375 11.25C7.84375 10.820312 8.191406 10.472656 8.617188 10.472656L8.992188 10.472656C9.1875 10.472656 9.347656 10.316406 9.347656 10.121094 9.347656 9.925781 9.1875 9.769531 8.992188 9.769531L8.617188 9.769531C7.800781 9.769531 7.140625 10.433594 7.140625 11.25L7.140625 12.375C7.140625 12.804688 6.792969 13.152344 6.363281 13.152344 6.167969 13.152344 6.011719 13.308594 6.011719 13.503906 6.011719 13.699219 6.167969 13.855469 6.363281 13.855469 6.792969 13.855469 7.140625 14.203125 7.140625 14.628906L7.140625 15.757812C7.140625 16.574219 7.800781 17.238281 8.617188 17.238281L8.992188 17.238281C9.1875 17.238281 9.347656 17.078125 9.347656 16.882812 9.347656 16.691406 9.1875 16.53125 8.992188 16.53125L8.617188 16.53125C8.191406 16.53125 7.84375 16.183594 7.84375 15.757812L7.84375 14.628906C7.84375 14.179688 7.640625 13.773438 7.320312 13.503906 7.640625 13.230469 7.84375 12.828125 7.84375 12.375zM13.878906 15.03125C13.785156 15.03125 13.695312 15.066406 13.628906 15.132812 13.5625 15.199219 13.527344 15.289062 13.527344 15.382812 13.527344 15.472656 13.5625 15.566406 13.628906 15.628906 13.695312 15.695312 13.785156 15.734375 13.878906 15.734375 13.972656 15.734375 14.0625 15.695312 14.128906 15.628906 14.191406 15.566406 14.230469 15.472656 14.230469 15.382812 14.230469 15.289062 14.191406 15.199219 14.128906 15.132812 14.0625 15.066406 13.972656 15.03125 13.878906 15.03125zM12 15.03125C11.90625 15.03125 11.816406 15.066406 11.75 15.132812 11.683594 15.199219 11.648438 15.289062 11.648438 15.382812 11.648438 15.472656 11.683594 15.566406 11.75 15.628906 11.816406 15.695312 11.90625 15.734375 12 15.734375 12.09375 15.734375 12.183594 15.695312 12.25 15.628906 12.316406 15.566406 12.351562 15.472656 12.351562 15.382812 12.351562 15.289062 12.316406 15.199219 12.25 15.132812 12.183594 15.066406 12.09375 15.03125 12 15.03125zM10.121094 15.03125C10.027344 15.03125 9.9375 15.066406 9.871094 15.132812 9.808594 15.199219 9.769531 15.289062 9.769531 15.382812 9.769531 15.472656 9.808594 15.566406 9.871094 15.628906 9.9375 15.695312 10.027344 15.734375 10.121094 15.734375 10.214844 15.734375 10.304688 15.695312 10.371094 15.628906 10.4375 15.566406 10.472656 15.472656 10.472656 15.382812 10.472656 15.289062 10.4375 15.199219 10.371094 15.132812 10.304688 15.066406 10.214844 15.03125 10.121094 15.03125zM5.613281 4.835938L19.890625 4.835938C20.085938 4.835938 20.242188 4.679688 20.242188 4.484375 20.242188 4.289062 20.085938 4.132812 19.890625 4.132812L5.613281 4.132812C5.417969 4.132812 5.261719 4.289062 5.261719 4.484375 5.261719 4.679688 5.417969 4.835938 5.613281 4.835938zM21.394531 4.835938L22.144531 4.835938C22.339844 4.835938 22.496094 4.679688 22.496094 4.484375 22.496094 4.289062 22.339844 4.132812 22.144531 4.132812L21.394531 4.132812C21.199219 4.132812 21.042969 4.289062 21.042969 4.484375 21.042969 4.679688 21.199219 4.835938 21.394531 4.835938zM21.394531 4.835938"/>
    <path d="M 22.144531 2.628906 L 1.855469 2.628906 C 0.832031 2.628906 0 3.460938 0 4.484375 L 0 19.515625 C 0 20.539062 0.832031 21.371094 1.855469 21.371094 L 22.144531 21.371094 C 23.167969 21.371094 24 20.539062 24 19.515625 L 24 4.484375 C 24 3.460938 23.167969 2.628906 22.144531 2.628906 Z M 1.855469 3.335938 L 22.144531 3.335938 C 22.777344 3.335938 23.296875 3.851562 23.296875 4.484375 L 23.296875 5.636719 L 0.703125 5.636719 L 0.703125 4.484375 C 0.703125 3.851562 1.222656 3.335938 1.855469 3.335938 Z M 22.144531 20.664062 L 1.855469 20.664062 C 1.222656 20.664062 0.703125 20.148438 0.703125 19.515625 L 0.703125 6.339844 L 23.296875 6.339844 L 23.296875 19.515625 C 23.296875 20.148438 22.777344 20.664062 22.144531 20.664062 Z M 22.144531 20.664062"/>
</svg>

<svg xmlns="http://www.w3.org/2000/svg" width="32" height="32" viewBox="0 0 24 24">
    <path d="M1.855 4.836a.351.351 0 0 0 .25-.102.369.369 0 0 0 .102-.25.355.355 0 0 0-.352-.352.355.355 0 0 0-.351.352c0 .094.035.184.101.25a.351.351 0 0 0 .25.102zm0 0M2.98 4.836a.355.355 0 0 0 .355-.352c0-.09-.038-.183-.105-.246a.346.346 0 0 0-.496 0 .346.346 0 0 0 0 .496.342.342 0 0 0 .246.102zm0 0M4.11 4.836a.351.351 0 0 0 .25-.102.351.351 0 0 0 .1-.25.355.355 0 0 0-.352-.352.355.355 0 0 0-.35.352c0 .094.035.184.101.25a.351.351 0 0 0 .25.102zm0 0M17.637 13.152a.777.777 0 0 1-.778-.777V11.25c0-.816-.66-1.48-1.476-1.48h-.375a.353.353 0 0 0-.356.351c0 .195.16.352.356.352h.375c.426 0 .773.347.773.777v1.125c0 .453.203.855.524 1.129a1.47 1.47 0 0 0-.524 1.125v1.129a.775.775 0 0 1-.773.773h-.375a.356.356 0 0 0-.356.352c0 .195.16.355.356.355h.375c.816 0 1.476-.664 1.476-1.48v-1.13c0-.425.348-.773.778-.773a.35.35 0 0 0 .351-.351.35.35 0 0 0-.351-.352zm0 0M7.844 12.375V11.25c0-.43.347-.777.773-.777h.375a.353.353 0 0 0 .356-.352.353.353 0 0 0-.356-.351h-.375c-.816 0-1.476.664-1.476 1.48v1.125c0 .43-.348.777-.778.777a.35.35 0 0 0-.351.352.35.35 0 0 0 .351.351c.43 0 .778.348.778.774v1.129c0 .816.66 1.48 1.476 1.48h.375c.195 0 .356-.16.356-.355a.356.356 0 0 0-.356-.352h-.375a.775.775 0 0 1-.773-.773v-1.13c0-.448-.203-.855-.524-1.124.32-.274.524-.676.524-1.129zm0 0M13.879 15.031a.351.351 0 0 0-.25.102.351.351 0 0 0-.102.25.355.355 0 0 0 .352.352.355.355 0 0 0 .351-.352.369.369 0 0 0-.101-.25.351.351 0 0 0-.25-.102zm0 0M12 15.031a.351.351 0 0 0-.25.102.351.351 0 0 0-.102.25.355.355 0 0 0 .352.352.355.355 0 0 0 .352-.352.351.351 0 0 0-.102-.25.351.351 0 0 0-.25-.102zm0 0M10.121 15.031a.351.351 0 0 0-.25.102.369.369 0 0 0-.101.25.355.355 0 0 0 .352.352.355.355 0 0 0 .35-.352.351.351 0 0 0-.1-.25.351.351 0 0 0-.25-.102zm0 0M5.613 4.836h14.278a.35.35 0 0 0 .351-.352.35.35 0 0 0-.351-.351H5.613a.35.35 0 0 0-.351.351.35.35 0 0 0 .351.352zm0 0M21.395 4.836h.75a.35.35 0 0 0 .351-.352.35.35 0 0 0-.351-.351h-.75a.35.35 0 0 0-.352.351.35.35 0 0 0 .352.352zm0 0"/>
    <path d="M22.145 2.629H1.855A1.857 1.857 0 0 0 0 4.484v15.032c0 1.023.832 1.855 1.855 1.855h20.29A1.857 1.857 0 0 0 24 19.516V4.484a1.857 1.857 0 0 0-1.855-1.855zm-20.29.707h20.29c.632 0 1.152.516 1.152 1.148v1.153H.703V4.484c0-.632.52-1.148 1.152-1.148zm20.29 17.328H1.855a1.154 1.154 0 0 1-1.152-1.148V6.34h22.594v13.176c0 .632-.52 1.148-1.152 1.148zm0 0"/>
</svg>
